!!!OTL: Treue Liebe (85), S. 228
!!!id: T0242
**kern
*clefG2
*k[b-e-]
*B-:
{8b-
=1
8b-
4cc
8dd
=2yy
8cc
=3
8b-
8g
4f}
=4
{4dd
8ee-
8dd
=5
8cc
8dd
4cc}
=6
{4f
8g
8f
=7
8f
8ee-
4dd}
=8
{4cc
8g
8a
=9
4b-}
4r
==
*-
!!!minrhy: 8
!!!meters: 2/4 ]  ZZ[4
!!!cut1: Treue Liebe (85), S. 228
!!!cut2: Melodie I
!!!reg: Luxemburg
!!!trd: Singendes Volk, Esch-Alzette 1937 posth.
!!!rhy1:   X_XX  XXX_
!!!rhy2: X_XX  XXX_
!!!key: T0242  08 Bb 2/4 ]  ZZ[4
!!!mod: HEPTATONIK IONISCH]  AMBITUS[7b
!!!kad: -5231
!!!akz: 21_32_-5-5_21_
!!!fot: 'a__as"b__c__
!!!for: 'a__a__a__aw_
!!!fok: '\__\__/__Vd_
!! PHRAS[VOLLTAKTIG]
!!!fkt: Liebeslieder
!!!bem: Heffingen, fff Susanna Berchem-Petry, 1906
!! THILL, Mathias:
!! PR[14] 2K[5] 2G[24] 3K[0] 3G[0] 4A[5] 4Ü[0] 5A[0] 6K[0] 6G[0]
!! 7K[5] 7G[0] 8A[0] MEHR[0] SI[38] ABS[21] SR[29] SP[10]
!! ST[8] 2k[5] 2g[19] 3k[5] 3g[10] 4d[10] 4ü[0] 5d[0] 6k[0] 6g[0]
!! 7k[0] 7g[0] 8d[0] mehr[0] si[48] dm[-10] sr[24] sp[24]
!! 1F[61] 2F[39] 3F[0] 4F[0] LF[0] 2P[0] 3P[0] 4P[0] TRI[0] DF[2] AB[23]
!! TF[0] U3K[0] U3[0] U4[0] U4Ü[0] U5[23] U6K[0] U6[14] U7K[0] U7[5]
!! N1[27] N2K[0] N2[14] N3K[0] N3[14] N4[5] N4Ü[0] N5[0] N6K[0] N6[0]
!!!n7k: 0] N7[0] O1[0] O2K[0] O2[0] O3K[0] O3[0] HÖ[0
